X: 23153
T: Le Batteux
R: three-two
M: 3/2
K: Dmajor
|:DEFG AFAd BGBd|AFAd BGBd AFAc|
dAFD E2ED EGFE|DEFG AFAd BGBd|
AFAd BDGB ADFA|1 d2F2 E3F D4:|2 d2F2 E3F DFED||
|:A,B,DF E3E EDEF|A,B,DF EDB,E DFED|
A,B,DF E2 (3EEE EDFD|1 ADFD EDB,E DFED:|2 ADFD EDB,E D4||

